lib/preview/nrk-logo-preview-nrk-p3-x-title-below-on-light.svg

<svg width="48" height="32" viewBox="0 0 48 32" fill="none" xmlns="http://www.w3.org/2000/svg">
<rect x="3.0769" y="3.0769" width="25.8462" height="25.8462" fill="white"/>
<path fill-rule="evenodd" clip-rule="evenodd" d="M0 0H32V32H0V0ZM10.5474 14.6379H7.61731V25.2838H10.5474V14.6379ZM14.2626 14.6379H10.9721C10.9721 14.6379 12.8416 17.7026 12.8627 17.7412C13.0059 17.9842 13.0147 18.1334 12.8748 18.3678L10.9721 21.4827H14.2626C14.2626 21.4827 15.8492 18.8916 16.0661 18.5319C16.2814 18.172 16.2717 17.9483 16.0574 17.579C15.8385 17.2065 15.8244 17.1834 14.5371 15.0853L14.537 15.0853L14.5368 15.0849L14.5365 15.0843L14.5364 15.0843L14.2626 14.6379ZM23.4775 14.6379C23.4775 14.6379 24.4568 16.2134 24.5674 16.4017C24.7823 16.7722 24.7921 16.9965 24.576 17.3575C24.4251 17.6077 23.1306 19.75 23.1306 19.75C23.3677 20.137 23.6836 20.6431 23.961 21.0876L23.9612 21.088L23.9616 21.0886C24.2466 21.5453 24.4909 21.9367 24.5673 22.0667C24.7822 22.4373 24.792 22.6615 24.576 23.0226C24.5348 23.0909 24.451 23.2316 24.3411 23.4161C24.0484 23.9074 23.5705 24.7096 23.2191 25.2838H20.2127L21.8588 22.582L20.1514 19.7202L21.6825 17.2147H17.9735L16.4351 14.6379H23.4775ZM17.7928 20.1046C17.3295 20.8607 16.5543 22.1274 16.4092 22.3745C16.2022 22.7314 16.1928 22.9474 16.4009 23.2951C16.5461 23.5361 17.3274 24.813 17.793 25.5735C18.2585 24.8129 19.0398 23.536 19.185 23.2951C19.3931 22.9473 19.3837 22.7314 19.1767 22.3745C19.0314 22.1274 18.2562 20.8607 17.7928 20.1046ZM7.58301 7.00474V12.995H9.54901V7.00474H7.58301ZM13.3544 12.995L12.2238 7.95812C12.1694 7.69149 12.025 7.4517 11.8147 7.27897C11.6047 7.09868 11.3362 7.00115 11.0595 7.00474H9.85276L11.2028 12.995H13.3544ZM13.6498 7.00474V12.995H15.6158V7.00474H13.6498ZM16.4975 9.12242C16.6804 9.22937 16.8888 9.28478 17.1005 9.28275C17.1005 9.28275 17.1005 9.28274 17.1004 9.28274H17.1007C17.1006 9.28274 17.1006 9.28275 17.1005 9.28275C17.3112 9.28522 17.5185 9.22974 17.6998 9.12242C17.8784 9.01724 18.0267 8.86752 18.1301 8.68791C18.2371 8.505 18.2925 8.29657 18.2906 8.08469C18.2929 7.87411 18.2374 7.66692 18.1301 7.48567C18.0256 7.30801 17.8775 7.15991 17.6998 7.05538C17.5185 6.94825 17.3113 6.89279 17.1007 6.89506C16.8889 6.89312 16.6804 6.94853 16.4975 7.05538C16.318 7.15901 16.1684 7.30723 16.063 7.48567C15.9556 7.66687 15.9001 7.87409 15.9025 8.08469C15.9004 8.29659 15.9559 8.50506 16.063 8.68791C16.1672 8.86831 16.3171 9.01816 16.4975 9.12242ZM18.5943 7.00474V12.995H20.5605V7.00474H18.5943ZM23.176 10.485C23.0972 10.353 23.055 10.2841 23.0495 10.2783H23.0492C22.9888 10.1974 22.9536 10.1006 22.9481 9.99986C22.9516 9.90391 22.9808 9.81067 23.0325 9.72976L24.7033 7.0046H22.5432C22.4083 7.22415 22.2859 7.42383 22.176 7.60363C22.0667 7.78362 21.9501 7.97627 21.8262 8.18157C21.7022 8.38687 21.5798 8.58796 21.4588 8.78482C21.3379 8.98168 21.2324 9.15181 21.1424 9.29524C21.0524 9.43867 20.9905 9.53852 20.9568 9.59477C20.8768 9.71552 20.8303 9.85528 20.8219 9.99986C20.8324 10.1505 20.8818 10.2959 20.9652 10.4217C20.9989 10.4724 21.0594 10.5709 21.1468 10.717C21.2338 10.8631 21.3378 11.0332 21.4588 11.2274C21.5799 11.4217 21.7023 11.6214 21.8262 11.8265C21.9497 12.0318 22.0663 12.223 22.176 12.4002C22.2857 12.5774 22.4081 12.7756 22.5432 12.995H24.7033C24.5455 12.7363 24.4049 12.5043 24.2814 12.2989C24.1575 12.0936 24.0252 11.8756 23.8847 11.6451C23.7442 11.4145 23.6106 11.1966 23.484 10.9912C23.3575 10.7857 23.2549 10.617 23.176 10.485Z" fill="black"/>
<path d="M47.2857 22.0027L43.1421 15.7419L46.9277 10H45.0339L42.2836 14.5706L39.2666 10H37.1854L41.0734 15.8253L36.9977 22.0024H38.9256L41.96 17.0695L45.2213 22.0024L47.2857 22.0027Z" fill="black"/>
</svg>

<svg xmlns="http://www.w3.org/2000/svg" viewBox="0 0 48 32"><path fill="#fff" d="M3.077 3.077h25.846v25.846H3.077z"/><path fill="#000" fill-rule="evenodd" d="M0 0h32v32H0V0Zm10.547 14.638h-2.93v10.646h2.93V14.638Zm3.716 0h-3.29s1.869 3.065 1.89 3.103c.143.243.152.392.012.627l-1.903 3.115h3.29s1.587-2.591 1.804-2.951c.215-.36.206-.584-.009-.953-.218-.373-.233-.396-1.52-2.494l-.274-.447Zm9.214 0s.98 1.575 1.09 1.764c.215.37.225.595.009.956l-1.445 2.392c.237.387.553.893.83 1.338.286.457.53.849.606.979.215.37.225.595.009.956l-.235.393c-.293.491-.77 1.294-1.122 1.868h-3.006l1.646-2.702-1.708-2.862 1.532-2.505h-3.71l-1.538-2.577h7.043Zm-5.684 5.467c-.463.756-1.239 2.022-1.384 2.27-.207.356-.216.572-.008.92.145.241.926 1.518 1.392 2.278.466-.76 1.247-2.037 1.392-2.278.208-.348.199-.564-.008-.92-.146-.248-.92-1.514-1.384-2.27Zm-10.21-13.1v5.99h1.966v-5.99H7.583Zm5.771 5.99-1.13-5.037a1.185 1.185 0 0 0-.41-.679 1.137 1.137 0 0 0-.755-.274H9.854l1.35 5.99h2.151Zm.296-5.99v5.99h1.966v-5.99H13.65Zm2.847 2.117c.183.107.392.163.604.16.21.003.418-.052.599-.16a1.198 1.198 0 0 0 .59-1.037 1.151 1.151 0 0 0-.16-.6 1.212 1.212 0 0 0-.43-.43 1.153 1.153 0 0 0-.6-.16 1.204 1.204 0 0 0-1.038.59 1.15 1.15 0 0 0-.16.6 1.189 1.189 0 0 0 .595 1.038Zm2.097-2.117v5.99h1.966v-5.99h-1.966Zm4.582 3.48a4.645 4.645 0 0 0-.127-.207.512.512 0 0 1-.1-.278.538.538 0 0 1 .083-.27l1.671-2.725h-2.16a303.862 303.862 0 0 0-.717 1.177 90.969 90.969 0 0 1-.87 1.413.82.82 0 0 0-.134.405c.01.15.06.296.143.422.034.05.094.149.182.295.087.146.19.316.312.51.12.195.243.394.367.6.124.205.24.396.35.573l.367.595h2.16l-.422-.696a173.957 173.957 0 0 0-.797-1.308c-.127-.205-.23-.374-.308-.506Z" clip-rule="evenodd"/><path fill="#000" d="m47.286 22.003-4.144-6.261L46.928 10h-1.894l-2.75 4.57L39.267 10h-2.082l3.888 5.825-4.075 6.177h1.928l3.034-4.932 3.261 4.932h2.065Z"/></svg>
